icons/evolvere-blue-folders-flat-vivid-dark-fallback/apps/64/session.svg

<?xml version="1.0" encoding="UTF-8" standalone="no"?>
<!-- Created with Inkscape (http://www.inkscape.org/) -->

<svg
   xmlns:dc="http://purl.org/dc/elements/1.1/"
   xmlns:cc="http://creativecommons.org/ns#"
   xmlns:rdf="http://www.w3.org/1999/02/22-rdf-syntax-ns#"
   xmlns:svg="http://www.w3.org/2000/svg"
   xmlns="http://www.w3.org/2000/svg"
   xmlns:xlink="http://www.w3.org/1999/xlink"
   xmlns:sodipodi="http://sodipodi.sourceforge.net/DTD/sodipodi-0.dtd"
   xmlns:inkscape="http://www.inkscape.org/namespaces/inkscape"
   id="svg13094"
   height="64"
   width="64"
   version="1.1"
   inkscape:version="0.91+devel r"
   sodipodi:docname="session.svg"
   inkscape:export-filename="folder.png"
   inkscape:export-xdpi="90"
   inkscape:export-ydpi="90">
  <sodipodi:namedview
     pagecolor="#ffffff"
     bordercolor="#666666"
     borderopacity="1"
     objecttolerance="10"
     gridtolerance="10"
     guidetolerance="10"
     inkscape:pageopacity="0"
     inkscape:pageshadow="2"
     inkscape:window-width="1920"
     inkscape:window-height="1023"
     id="namedview46"
     showgrid="true"
     inkscape:snap-bbox="true"
     inkscape:bbox-paths="true"
     inkscape:bbox-nodes="true"
     inkscape:snap-bbox-edge-midpoints="true"
     inkscape:snap-bbox-midpoints="true"
     inkscape:snap-nodes="true"
     inkscape:object-paths="true"
     inkscape:snap-intersection-paths="true"
     inkscape:object-nodes="true"
     inkscape:snap-smooth-nodes="true"
     inkscape:snap-midpoints="true"
     inkscape:snap-object-midpoints="true"
     inkscape:snap-center="true"
     fit-margin-top="0"
     fit-margin-left="0"
     fit-margin-right="0"
     fit-margin-bottom="0"
     inkscape:zoom="10.429825"
     inkscape:cx="26.94078"
     inkscape:cy="31.9157"
     inkscape:window-x="-10"
     inkscape:window-y="35"
     inkscape:window-maximized="1"
     inkscape:current-layer="svg13094"
     showguides="true"
     inkscape:guide-bbox="true"
     inkscape:snap-page="true"
     inkscape:snap-global="true">
    <inkscape:grid
       type="xygrid"
       id="grid3023"
       empspacing="5"
       visible="true"
       enabled="true"
       snapvisiblegridlinesonly="true"
       originx="-80px"
       originy="-75px" />
  </sodipodi:namedview>
  <defs
     id="defs11">
    <radialGradient
       inkscape:collect="always"
       xlink:href="#linearGradient3889"
       id="radialGradient3895"
       cx="30.956524"
       cy="26.079042"
       fx="30.956524"
       fy="26.079042"
       r="18.34375"
       gradientTransform="matrix(2.2163541,0,0,1.9539255,-29.610619,-31.956505)"
       gradientUnits="userSpaceOnUse" />
    <linearGradient
       inkscape:collect="always"
       id="linearGradient3889">
      <stop
         style="stop-color:#b9f1ff;stop-opacity:0.35573477"
         offset="0"
         id="stop3891" />
      <stop
         style="stop-color:#ffffff;stop-opacity:0;"
         offset="1"
         id="stop3893" />
    </linearGradient>
    <radialGradient
       r="26"
       fy="33.904079"
       fx="58"
       cy="33.904079"
       cx="58"
       gradientTransform="matrix(0,1.7307693,-1.6309173,0,87.29475,-44.384619)"
       gradientUnits="userSpaceOnUse"
       id="radialGradient3817"
       xlink:href="#linearGradient3818-1-1"
       inkscape:collect="always" />
    <linearGradient
       id="linearGradient3818-1-1">
      <stop
         style="stop-color:#72a1e3;stop-opacity:1;"
         offset="0"
         id="stop3820-2-9" />
      <stop
         style="stop-color:#41597d;stop-opacity:1;"
         offset="1"
         id="stop3822-3-9" />
    </linearGradient>
    <linearGradient
       id="linearGradient3933">
      <stop
         style="stop-color:#496386;stop-opacity:1;"
         offset="0"
         id="stop3935" />
      <stop
         style="stop-color:#3b4857;stop-opacity:1;"
         offset="1"
         id="stop3937" />
    </linearGradient>
    <linearGradient
       id="linearGradient3849">
      <stop
         style="stop-color:#9fb2c9;stop-opacity:1;"
         offset="0"
         id="stop3851" />
      <stop
         style="stop-color:#798eab;stop-opacity:1;"
         offset="1"
         id="stop3853" />
    </linearGradient>
    <linearGradient
       id="linearGradient3818-1-1-0">
      <stop
         style="stop-color:#569cff;stop-opacity:1;"
         offset="0"
         id="stop3820-2-9-9" />
      <stop
         style="stop-color:#265191;stop-opacity:1;"
         offset="1"
         id="stop3822-3-9-8" />
    </linearGradient>
    <linearGradient
       id="linearGradient3889-5">
      <stop
         style="stop-color:#82e6ff;stop-opacity:0.49256626;"
         offset="0"
         id="stop3891-5" />
      <stop
         style="stop-color:#64dbff;stop-opacity:0.10084034;"
         offset="1"
         id="stop3893-6" />
    </linearGradient>
  </defs>
  <metadata
     id="metadata13099">
    <rdf:RDF>
      <cc:Work
         rdf:about="">
        <dc:format>image/svg+xml</dc:format>
        <dc:type
           rdf:resource="http://purl.org/dc/dcmitype/StillImage" />
        <dc:title></dc:title>
      </cc:Work>
    </rdf:RDF>
  </metadata>
  <path
     sodipodi:nodetypes="ccccccccc"
     inkscape:connector-curvature="0"
     style="color:#000000;display:inline;overflow:visible;visibility:visible;opacity:1;fill:#3b577a;fill-opacity:1;fill-rule:nonzero;stroke:none;stroke-width:1;stroke-linecap:butt;stroke-linejoin:miter;stroke-miterlimit:4;stroke-dasharray:none;stroke-dashoffset:0;stroke-opacity:1;marker:none;enable-background:accumulate"
     id="path3812"
     d="M 0,1 2,0 62,0 64,1 64,62 62,64 2,64 0,62 Z" />
  <path
     d="M 0,1 2,0 62,0 64,1 64,4 0,4 Z"
     id="path3029"
     style="color:#000000;display:inline;overflow:visible;visibility:visible;opacity:1;fill:#668cbb;fill-opacity:1;fill-rule:nonzero;stroke:none;stroke-width:2.28571415;stroke-linecap:butt;stroke-linejoin:miter;stroke-miterlimit:4;stroke-dasharray:none;stroke-dashoffset:0;stroke-opacity:1;marker:none;enable-background:accumulate"
     inkscape:connector-curvature="0"
     sodipodi:nodetypes="ccccccc" />
  <path
     d="M 64,6 62,4 64,3 Z"
     id="path3028"
     style="opacity:1;fill:#162f4d;fill-opacity:0.35241502;stroke:none;stroke-width:0.62299293;stroke-linecap:butt;stroke-linejoin:miter;stroke-miterlimit:4;stroke-dasharray:none;stroke-dashoffset:0;stroke-opacity:1;marker:none"
     inkscape:connector-curvature="0" />
  <path
     d="M 0,6 2,4 0,3 Z"
     id="path3028-6"
     style="opacity:1;fill:#87bde7;fill-opacity:0.54740607;stroke-width:1;stroke-linecap:butt;stroke-linejoin:miter;stroke-miterlimit:4;stroke-dasharray:none;stroke-dashoffset:0;stroke-opacity:1"
     inkscape:connector-curvature="0" />
  <path
     style="color:#000000;display:inline;overflow:visible;visibility:visible;fill:#2c8fe4;fill-opacity:1;fill-rule:nonzero;stroke:none;stroke-width:1;marker:none;enable-background:accumulate"
     d="m 6,10 52,0 0,47 -52,0 z"
     id="rect3776"
     inkscape:connector-curvature="0"
     sodipodi:nodetypes="ccccc" />
  <path
     inkscape:connector-curvature="0"
     id="rect3776-4"
     d="m 6,10 0,47 18.6875,0 18,-47 L 6,10 Z"
     style="color:#000000;display:inline;overflow:visible;visibility:visible;fill:#6ce3ff;fill-opacity:0.177102;fill-rule:nonzero;stroke:none;stroke-width:1;marker:none;enable-background:accumulate" />
  <path
     style="color:#000000;fill:#e3ecf0;fill-opacity:1;fill-rule:nonzero;stroke:none;stroke-width:0.0737668;marker:none;visibility:visible;display:inline;overflow:visible;enable-background:accumulate;opacity:1;stroke-linecap:butt;stroke-linejoin:miter;stroke-miterlimit:4;stroke-dasharray:none;stroke-dashoffset:0;stroke-opacity:1"
     d="M 29 18 L 29 29.0625 L 19.4375 23.53125 L 17.4375 26.96875 L 27.03125 32.5 L 17.4375 38.03125 L 19.4375 41.46875 L 29 35.9375 L 29 47 L 33 47 L 33 35.9375 L 42.5625 41.46875 L 44.5625 38.03125 L 34.96875 32.5 L 44.5625 26.96875 L 42.5625 23.53125 L 33 29.0625 L 33 18 L 29 18 z "
     id="rect3014" />
</svg>

<svg xmlns="http://www.w3.org/2000/svg" viewBox="0 0 64 64"><g color="#000"><path d="m0 1l2-1h60l2 1v61l-2 2h-60l-2-2" fill="#3b577a"/><path d="m0 1l2-1h60l2 1v3h-64" fill="#668cbb"/></g><path d="m64 6l-2-2 2-1" fill="#162f4d" fill-opacity=".352"/><path d="m0 6l2-2-2-1" fill="#87bde7" fill-opacity=".547"/><g color="#000"><path d="m6 10h52v47h-52z" fill="#2c8fe4"/><path d="m6 10v47h18.688l18-47h-36.688" fill="#6ce3ff" fill-opacity=".177"/><path d="m29 18v11.06l-9.563-5.531-2 3.438 9.594 5.531-9.594 5.531 2 3.438 9.563-5.531v11.06h4v-11.06l9.563 5.531 2-3.438-9.594-5.531 9.594-5.531-2-3.438-9.563 5.531v-11.06h-4" fill="#e3ecf0"/></g></svg>
